X:0513
M:6/8
L:1/8
Q:3/8=120
K:G
a   |bag ede| aAA   A2B   |def gdc|BGG G2::
g/a/|bag ede| aAA   A2g/a/|bag ege|def gdB|
     c2a B2g| aAA   A2B   |G2g ded|BGG G2:|

